X: 4496
T: Bonny Lass
R: reel
M: 4/4
K: Dmajor
F|D2 D2 FDAF|D2 D2 FEEF|D2 D2 AFAF
GBEG FD D:|:A2|d>f dB AcAF|
d2 df eBBc|d>e dB Acde|dBAG FD HD:|

